icons/svgs/trophy-solid.svg

<svg width="24" height="24" viewBox="0 0 24 24" fill="none" xmlns="http://www.w3.org/2000/svg">
<path d="M16.875 2C17.8906 2 18.75 2.85938 18.7109 3.91406C18.6719 4.10938 18.6719 4.30469 18.6719 4.5H22.8125C23.3203 4.5 23.75 4.92969 23.75 5.4375C23.75 9.07031 22.4219 11.5703 20.6641 13.2891C18.9453 14.9688 16.8359 15.8281 15.2734 16.2578C14.3359 16.4922 13.75 17.2734 13.75 18.0547C13.75 18.8359 14.4141 19.5 15.1953 19.5H16.25C16.9141 19.5 17.5 20.0859 17.5 20.75C17.5 21.4531 16.9141 22 16.25 22H8.75C8.04688 22 7.5 21.4531 7.5 20.75C7.5 20.0859 8.04688 19.5 8.75 19.5H9.76562C10.5859 19.5 11.25 18.8359 11.25 18.0547C11.25 17.2734 10.625 16.4922 9.6875 16.2578C8.125 15.8281 6.01562 14.9688 4.29688 13.2891C2.53906 11.5703 1.25 9.07031 1.25 5.4375C1.25 4.92969 1.64062 4.5 2.1875 4.5H6.28906C6.28906 4.30469 6.28906 4.10938 6.25 3.91406C6.21094 2.85938 7.07031 2 8.125 2H16.875ZM3.125 6.375H3.16406C3.35938 8.99219 4.375 10.75 5.625 11.9609C6.48438 12.8203 7.5 13.4062 8.47656 13.8359C7.57812 12.2734 6.79688 9.92969 6.44531 6.375H3.125ZM19.375 11.9609C20.625 10.75 21.6406 8.99219 21.8359 6.375H18.5156C18.1641 9.92969 17.3828 12.2734 16.4844 13.8359C17.4609 13.4062 18.4766 12.8203 19.375 11.9609Z" fill="black"/>
</svg>

<svg xmlns="http://www.w3.org/2000/svg" width="24" height="24" fill="currentColor" class="icon-trophy-solid" viewBox="0 0 24 24">
  <mask id="a" width="23" height="20" x="1" y="2" maskUnits="userSpaceOnUse" style="mask-type:alpha">
    <path d="M16.875 2c1.016 0 1.875.86 1.836 1.914-.04.195-.04.39-.04.586h4.142a.95.95 0 0 1 .937.938c0 3.632-1.328 6.132-3.086 7.851-1.719 1.68-3.828 2.54-5.39 2.969-.938.234-1.524 1.015-1.524 1.797 0 .78.664 1.445 1.445 1.445h1.055c.664 0 1.25.586 1.25 1.25 0 .703-.586 1.25-1.25 1.25h-7.5c-.703 0-1.25-.547-1.25-1.25 0-.664.547-1.25 1.25-1.25h1.016c.82 0 1.484-.664 1.484-1.445 0-.782-.625-1.563-1.562-1.797-1.563-.43-3.672-1.29-5.391-2.969C2.539 11.57 1.25 9.07 1.25 5.438c0-.508.39-.938.938-.938h4.101c0-.195 0-.39-.039-.586C6.21 2.86 7.07 2 8.125 2zM3.125 6.375h.04c.194 2.617 1.21 4.375 2.46 5.586.86.86 1.875 1.445 2.852 1.875-.899-1.563-1.68-3.906-2.032-7.461zm16.25 5.586c1.25-1.211 2.266-2.969 2.46-5.586h-3.32c-.35 3.555-1.132 5.898-2.03 7.46.976-.429 1.992-1.015 2.89-1.874"/>
  </mask>
  <g mask="url(#a)">
    <path d="M0 0h24v24H0z"/>
  </g>
</svg>
